X: 1
T:Give Me Your Hand
O:Ireland
N:R.D.o'C said to have been born c. 1550
M:3/4
C:Ruari Dall O'Cathain
K:G
D|\
EGG G2D|EGG G2D|\
EGG GAB|Bed B2A/G/|\
AAe/d/ BBd/B/|A>BA/G/ E2D|
EGG G2D|EGG G2D|\
EGG GAB|D>BA/B/ G2D|
EGG GAB|Bed B2d/B/|\
AAe/d/ BBd/B/|A2B/d/ e2d/B/|
dde g2e/d/|eeg a2g/e/|\
ggd/e/ ggd/e/|gga b3|
bbb b2a/g/|aa/b/a/g/ e2g/f/|\
eeg/e/ ddg/d/|BBd/B/A2B/A/|
GBd =f2e/d/|eeg e2d/B/|\
ddg/e/ B2d/B/|AA/c/B/A/ G2|]
